X:1
T:Hark, the Voice, 87.87 D
T:Hark, the Voice, 87.87 D
T:Philip P. Van Arsdale, 1869
T:Public Domain Courtesy of the Cyber Hymnal™
C:Philip P. Van Arsdale, 1869
Z:Public Domain
Z:Courtesy of the Cyber Hymnal™
%%score ( 1 2 ) 3
L:1/8
Q:1/4=110
M:4/4
K:G
V:1 treble 
V:2 treble 
V:3 bass 
V:1
 [DB]3 [DA] [DG]2 [DA]2 | [GB]3 [FA] [GB] [Gd]3 | [Ge]3 [Gd] [Gd]2 [Ge]2 | [Gd]3 [GB] [FA]2 z2 | %4
 [DB]3 [DA] [DG]2 [DA]2 | [GB]3 [FA] [GB] [Gd]3 | [Ge]3 [Ge] [Gd]2 [GB]2 | [FA]3 [FB] G4 | %8
 [Ec]3 [Ec] [Ec]2 [=Fd]2 | [Ge]3 [=Fd] [Ec]2 [Ge]2 | [Gd]3 [Ge] [Gd]2 [GB]2 | %11
 [GB]2 ([FA][EG]) [FA]2 z2 | [DB]3 [DA] [DG]2 [DA]2 | [GB]3 [FA] [GB] [Gd]3 | %14
 [Ge]3 [Ge] [Gd]2 [GB]2 | [FA]3 [FB] G4 |] %16
V:2
 x8 | x8 | x8 | x8 | x8 | x8 | x8 | x4 G4 | x8 | x8 | x8 | x8 | x8 | x8 | x8 | x4 G4 |] %16
V:3
 [G,D]3 [G,C] [G,B,]2 [G,C]2 | [G,D]3 [D,D] [G,D] [G,B,]3 | [G,C]3 [G,B,] [G,B,]2 [G,C]2 | %3
 [G,B,]3 [G,D] [D,D]2 z2 | [G,D]3 [G,C] [G,B,]2 [G,C]2 | [G,D]3 [D,D] [G,D] [G,B,]3 | %6
 [C,G,]3 [C,C] [D,B,]2 [D,D]2 | [D,C]3 [D,D] [G,,G,B,]4 | [C,C]3 [C,C] [C,C]2 [C,C]2 | %9
 [C,C]3 [C,C] [C,C]2 [C,C]2 | [G,B,]3 [G,C] [G,B,]2 [G,D]2 | [D,D]2 [D,D]2 [D,D]2 z2 | %12
 [G,D]3 [G,C] [G,B,]2 [G,C]2 | [G,D]3 [D,D] [G,D] [G,B,]3 | [C,G,]3 [C,C] [D,B,]2 [D,D]2 | %15
 [D,C]3 [D,D] [G,,G,B,]4 |] %16

